!!!!SEGMENT: pl-kk--kk-i-14--012_anonim--sancte-deus-sancte-fortis.krn
!!!cenid: 17xx:2200
!!!COM: Anonim
!!!COM-rismid: pe30004985
!!!CDT:
!!!CNT:
!!!OTL: Sancte Deus sancte fortis
!!!PDT:
!!!AGN: Sacred
!!!SMS-siglum: PL-Kk
!!!SMS-shelfmark: Kk.I.14
!!!SMS-shelfwork: 012 W
!!!SMS-variant:
!!!SMS-altvar:
!!!NIFC-rismid: 1001154406
!!!URL-scan: http://repozytorium.nifc.pl/skany/pl-kk-nut--i-14
!!!ONB-nifc: UWAGA: T (skan 0008), B (0020). Następny utwór: Sub tuum praesidium
**kern	**text	**kern	**text
*part2	*part2	*part1	*part1
*staff2	*staff2	*staff1	*staff1
*Ibass	*	*Itenor	*
*I"Basso	*	*I"Tenore	*
*I'B	*	*I'T	*
*clefF4	*	*clefC4	*
*k[b-]	*	*k[b-]	*
*B-:	*	*B-:	*
*M2/1met(c|)	*	*M2/1	*
*	*	*met(c|)	*
*>[A,A,B,B]	*	*>[A,A,B,B]	*
=1-	=1-	=1-	=1-
*>A	*	*>A	*
1r	.	2.c\	San-
!	!	!LO:TX:t=P:problem:kreska pseudotaktowa	!
.	.	4B-\	.
2.F\	San-	2A/	.
!	!	!LO:TX:t=P:problem:kreska pseudotaktowa	!
.	.	2F/	-cte
!LO:TX:a:t=P:problem:♭ above	!	!	!
!LO:TX:t=P:problem:kreska pseudotaktowa	!	!	!
4E-X\	.	.	.
=2-	=2-	=2-	=2-
2D/	.	4B-\	De-
.	.	4F/	.
2BB-/	-cte	1B-	.
1F	De-	.	.
!	!	!LO:TX:t=P:problem:kreska pseudotaktowa	!
.	.	2A/	.
=3-	=3-	=3-	=3-
!LO:TX:t=P:problem:kreska pseudotaktowa	!	!	!
1BB-	-(us)	1B-	-us
2r	.	2.c\	San-
2.F\	San-	.	.
.	.	4B-\	-cte-
=4-	=4-	=4-	=4-
.	.	2.A/	.
4E-X\	.	.	.
2.D/	.	.	.
!	!	!LO:TX:t=P:problem:kreska pseudotaktowa	!
.	.	4F/	.
.	.	2F/	-cte
4C/	.	.	.
2BB-/	-cte	1B-\	for-
=5-	=5-	=5-	=5-
1F	for-	.	.
!	!	!LO:TX:t=P:problem:kreska pseudotaktowa	!
.	.	2A/	.
!LO:TX:t=P:problem:kreska pseudotaktowa	!	!	!
1BB-	-tis	2B-\	-tis
.	.	2B-\	San-
=6-	=6-	=6-	=6-
1rE	.	2A/	-cte
.	.	4B-\	im-
!	!	!LO:TX:t=P:problem:kreska pseudotaktowa	!
.	.	4B-\	-mor-
2rE	.	2A/	-ta-
!LO:TX:t=P:problem:kreska pseudotaktowa	!	!	!
2BB-/	San-	2B-\	.
=7-	=7-	=7-	=7-
2AA/	-cte	2c\	.
4BB-/	im-	2B-\	-lis
!LO:TX:t=P:problem:kreska pseudotaktowa	!	!	!
4BB-/	-mor-	.	.
2AA/	-ta-	2r	.
2BB-/	.	1B-\	mi-
=8-	=8-	=8-	=8-
!LO:TX:t=P:problem:kreska pseudotaktowa	!	!	!
1FF	.	.	.
.	.	2A/	-ſe-
!LO:LB:g=original	!	!LO:LB:g=original	!
2BB-/	-lis	2B-\	-re-
!LO:TX:t=P:problem:kreska pseudotaktowa	!	!	!
2F\	mi-	2A/	-re
=9-	=9-	=9-	=9-
2C/	-ſe-	2.G/	no-
2.G\	-re-	.	.
.	.	4A\	.
.	.	2Bn\	.
4F\	.	.	.
!LO:TX:t=P:problem:kreska pseudotaktowa	!	!	!
2.E-X\	.	2.c\	.
=10-	=10-	=10-	=10-
.	.	.	.
4D\	.	4d\	.
!	!	!LO:TX:t=P:problem:kreska pseudotaktowa	!
2C/	-re	2e-X\	.
1G	no-	1d	.
=11-	=11-	=11-	=11-
2C,</	-bis	2c\	-bis
!LO:TX:t=P:problem:kreska pseudotaktowa	!	!	!
2E-X\	mi-	1B-y	mi-
2BB-/	-ſe-	.	.
2F\	-re-	2A/	-ſe-
=12-	=12-	=12-	=12-
2BB-/	-re	1B-	-re-
!LO:TX:t=P:problem:kreska pseudotaktowa	!	!	!
2BB-/	mi-	.	.
2FF/	-ſe-	2A/	-re
1BB-/	-re-	1d\	mi-
=13-	=13-	=13-	=13-
.	.	.	.
2AA/	-re	2c\	-ſe-
2.BB-/	no-	2.d\	-re-
!LO:TX:t=P:problem:kreska pseudotaktowa	!	!	!
4C/	.	4c\	-re
=14-	=14-	=14-	=14-
2.D/	.	1.B-	no-
4E\ny	.	.	.
1F	.	.	.
.	.	4A/	.
.	.	4G/	.
=15-	=15-	=15-	=15-
!LO:TX:t=P:problem:kreska pseudotaktowa	!	!	!
0FF	-bis	0A	-bis
!LO:LB:g=original	!	!	!
=16:|!|:-	=16:|!|:-	=16:|!|:-	=16:|!|:-
*>B	*	*>B	*
*M2/1	*	*M2/1	*
*met(c|)	*	*met(c|)	*
4BB-/	a	1rA	.
4C/	.	.	.
4D/	.	.	.
!LO:TX:a:t=P:problem:♭ above	!	!	!
!LO:TX:t=P:problem:kreska pseudotaktowa	!	!	!
4E-X/	.	.	.
2F\	pe-	4F/	a-
.	.	4G/	.
!LO:TX:t=P:problem:kreska pseudotaktowa	!	!	!
2F\	-ſte	4A\	.
.	.	4B-\	.
!	!	!LO:LB:g=original	!
=17-	=17-	=17-	=17-
4FF/	fa-	2c\	-pe-
4GG/	.	.	.
4AA/	.	2c\	-ſte
!LO:TX:t=P:problem:kreska pseudotaktowa	!	!	!
4FF/	.	.	.
2BB-/	.	2B-\	fa-
4BB-/	-me	1B-\	-me
4BB-/	et	.	.
=18-	=18-	=18-	=18-
2.F\	bel-	.	.
.	.	2A/	et
!LO:TX:t=P:problem:kreska pseudotaktowa	!	!	!
4E-X\	.	.	.
4D/	.	4B-\	bel-
4C/	.	4F/	.
4D/	.	1B-\	.
4BB-/	.	.	.
=19-	=19-	=19-	=19-
1F	.	.	.
.	.	2A/	.
!LO:TX:t=P:problem:kreska pseudotaktowa	!	!	!
1BB-	-lo	2B-\	-lo
.	.	2.B-\	li-
=20-	=20-	=20-	=20-
2.E-X\	li-	.	.
.	.	4B-\	-be-
.	.	4G/	-ra
4E-\	-be-	4G/	nos
4C/	-ra	2c\	Do-
4C/	nos	.	.
1GG/	Do-	2d\	.
=21-	=21-	=21-	=21-
.	.	2e\	.
2GG/	-mi-	2d\	-mi-
!LO:LB:g=original	!	!	!
1C,<	-ne	2c\	-ne
.	.	2.c\	li-
=22-	=22-	=22-	=22-
2.G\	li-	.	.
.	.	4c\	-be-
.	.	4Bn\	-ra
!LO:TX:t=P:problem:kreska pseudotaktowa	!	!	!
4G\	-be-	4B\	nos
2E-X\	-ra	2c\	Do-
2E-\	nos	1B-X\	.
=23-	=23-	=23-	=23-
2.F\	Do-	.	.
.	.	2A\	.
!LO:TX:t=P:problem:kreska pseudotaktowa	!	!	!
4E-X\	.	.	.
!	!	!LO:LB:g=original	!
4D/	.	4B-\	.
4C/	.	4c\	.
1BB-/	.	2.d\	.
=24-	=24-	=24-	=24-
.	.	.	.
.	.	2.c\	-mi-
!LO:TX:t=P:problem:kreska pseudotaktowa	!	!	!
2AA/	.	.	.
0BB-	.	4c\	-ne
.	.	4B-\	.
.	.	4A\	.
.	.	4B-\	.
=25-	=25-	=25-	=25-
.	.	4c\	.
.	.	4e\	.
.	.	4d\	.
.	.	4c\	.
2rC	.	2.B-\	Do-
2BB-/	-mi-	.	.
.	.	4B-\	-mi-
=26-	=26-	=26-	=26-
0FF	-ne	0A;;	-ne
=-	=-	=-	=-
*-	*-	*-	*-
!!!system-decoration: s1,s2
!!!RDF**kern: > = above
!!!RDF**kern: < = below
!!!EED: Antoni Szymański
!!!EST: 2021-07-18
!!!AIN: 1 bass 1 tenor
!!!ENC: Andrzej Gręziak
!!!END: 2021-07-01
